X:132
T: EIN MAEDCHEN HOLDER MIENEN
N: B0164
O: Europa, Mitteleuropa, Deutschland, Brandenburg
R: Ballade, Romanze
M: 2/4
L: 1/16
K: F
AB | c2A2F2c2 | cBdcB2
GA | B2G2E2B2 | BAcBA2
C2 | F3GA2B2 | c2f2d2
Bd | dcAFcBGE | F4z2
AB | c2A2F2c2 | cBdcB2
GA | B2G2E2B2 | BAcBA2
C2 | F3GA2B2 | c2f2d2
Bd | dcAFcBGE | F4z2

